icons/svg/seamark/berth.svg

<?xml version="1.0" encoding="UTF-8" standalone="no"?>
<svg
   xmlns:dc="http://purl.org/dc/elements/1.1/"
   xmlns:cc="http://creativecommons.org/ns#"
   xmlns:rdf="http://www.w3.org/1999/02/22-rdf-syntax-ns#"
   xmlns:svg="http://www.w3.org/2000/svg"
   xmlns="http://www.w3.org/2000/svg"
   xmlns:sodipodi="http://sodipodi.sourceforge.net/DTD/sodipodi-0.dtd"
   xmlns:inkscape="http://www.inkscape.org/namespaces/inkscape"
   width="580"
   height="580"
   id="svg2"
   version="1.1"
   inkscape:version="0.48.4 r9939"
   sodipodi:docname="berth.svg">
  <defs
     id="defs13">
    <inkscape:path-effect
       effect="gears"
       id="path-effect3774"
       is_visible="true"
       teeth="6"
       phi="-1.2" />
    <inkscape:path-effect
       effect="bend_path"
       id="path-effect3772"
       is_visible="false"
       bendpath="m 95.790098,316.51174 c 144.429032,-206.42506 223.313032,-11.7428 339.548092,0"
       prop_scale="1.19"
       scale_y_rel="false"
       vertical="false"
       bendpath-nodetypes="cc" />
  </defs>
  <sodipodi:namedview
     pagecolor="#ffffff"
     bordercolor="#666666"
     borderopacity="1"
     objecttolerance="10"
     gridtolerance="10"
     guidetolerance="10"
     inkscape:pageopacity="0"
     inkscape:pageshadow="2"
     inkscape:window-width="1920"
     inkscape:window-height="1004"
     id="namedview11"
     showgrid="false"
     inkscape:zoom="0.5754386"
     inkscape:cx="195.09518"
     inkscape:cy="264.96536"
     inkscape:window-x="1680"
     inkscape:window-y="0"
     inkscape:window-maximized="1"
     inkscape:current-layer="svg2" />
  <metadata
     id="metadata2975">image/svg+xmlen<rdf:RDF>
  <cc:Work
     rdf:about="">
    <dc:format>image/svg+xml</dc:format>
    <dc:type
       rdf:resource="http://purl.org/dc/dcmitype/StillImage" />
    <dc:title />
  </cc:Work>
</rdf:RDF>
</metadata>
  <path
     style="font-size:medium;font-style:normal;font-variant:normal;font-weight:normal;font-stretch:normal;text-indent:0;text-align:start;text-decoration:none;line-height:normal;letter-spacing:normal;word-spacing:normal;text-transform:none;direction:ltr;block-progression:tb;writing-mode:lr-tb;text-anchor:start;baseline-shift:baseline;opacity:0.83582093000000002;color:#000000;fill:#8d668d;fill-opacity:1;fill-rule:nonzero;stroke:none;stroke-width:1;marker:none;visibility:visible;display:inline;overflow:visible;enable-background:accumulate;font-family:Sans;-inkscape-font-specification:Sans"
     d="m 290.08052,171.60616 c -20.0165,0 -36.43414,16.41762 -36.43414,36.43416 0,13.39637 7.35889,25.17254 18.22489,31.50346 l 0,23.1556 -27.33733,0 0,18.22488 27.33733,0 0,82.0588 c -22.08869,-1.56054 -46.46619,-30.32337 -58.01381,-57.18682 9.15579,0.49817 18.14687,-0.20285 18.14687,-0.20285 0,0 -17.62561,-26.58397 -42.39471,-33.40709 -15.46815,13.36383 -17.94402,51.24189 -17.94402,51.24189 0,0 5.8231,-2.88284 12.87289,-8.25425 11.90221,34.07123 42.91721,63.58893 80.42042,71.82289 16.10584,3.53455 25.12161,21.45481 25.12161,21.45481 0,0 9.03145,-17.92026 25.13726,-21.4548 37.31409,-8.19243 68.19952,-37.45478 80.23319,-71.30798 7.21825,5.5007 13.06015,7.73934 13.06015,7.73934 0,-10.93157 -1.23764,-33.10425 -17.07027,-51.67879 -24.76902,6.82312 -43.28406,33.84399 -43.28406,33.84399 0,0 8.99411,0.70008 18.14684,0.20284 -11.54928,26.85771 -35.91216,55.62647 -57.99822,57.18682 l 0,-82.05879 27.32175,0 0,-18.22489 -27.32175,0 0,-23.15559 c 10.85958,-6.33256 18.22488,-18.11189 18.22488,-31.50346 0,-20.01655 -16.4332,-36.43417 -36.44977,-36.43417 z m 0,18.20928 c 10.17019,0 18.22489,8.05476 18.22489,18.22488 0,10.17012 -8.0547,18.22488 -18.22489,18.22488 -10.17008,0 -18.20925,-8.05476 -18.20925,-18.22488 0,-10.17012 8.03917,-18.22488 18.20925,-18.22488 z"
     id="circle3"
     inkscape:connector-curvature="0" />
</svg>

<svg width="580" height="580" viewBox="0 0 580 580" fill="none" xmlns="http://www.w3.org/2000/svg">
<path opacity="0.835821" d="M290.08 171.606C270.064 171.606 253.646 188.024 253.646 208.04C253.646 221.437 261.005 233.213 271.871 239.544V262.699H244.534V280.924H271.871V362.983C249.783 361.423 225.405 332.66 213.857 305.796C223.013 306.294 232.004 305.593 232.004 305.593C232.004 305.593 214.379 279.009 189.61 272.186C174.141 285.55 171.666 323.428 171.666 323.428C171.666 323.428 177.489 320.545 184.538 315.174C196.441 349.245 227.456 378.763 264.959 386.997C281.065 390.531 290.08 408.452 290.08 408.452C290.08 408.452 299.112 390.531 315.218 386.997C352.532 378.804 383.417 349.542 395.451 315.689C402.669 321.19 408.511 323.428 408.511 323.428C408.511 312.497 407.273 290.324 391.441 271.749C366.672 278.573 348.157 305.593 348.157 305.593C348.157 305.593 357.151 306.294 366.304 305.796C354.754 332.654 330.391 361.423 308.305 362.983V280.924H335.627V262.699H308.305V239.544C319.165 233.211 326.53 221.432 326.53 208.04C326.53 188.024 310.097 171.606 290.08 171.606V171.606ZM290.08 189.815C300.251 189.815 308.305 197.87 308.305 208.04C308.305 218.21 300.251 226.265 290.08 226.265C279.91 226.265 271.871 218.21 271.871 208.04C271.871 197.87 279.91 189.815 290.08 189.815V189.815Z" fill="#8D668D"/>
</svg>
